symbols/default/01m.svg

<svg width="100" height="100" viewBox="0 0 100 100" fill="none" xmlns="http://www.w3.org/2000/svg">
<g clip-path="url(#clip0_149_1361)">
<path fill-rule="evenodd" clip-rule="evenodd" d="M91 41L75.6 47.9L85.5 61.4L68.7 59.7L70.5 76.4L56.8 66.6L50 82L43.1 66.6L29.5 76.5L31.2 59.7L14.5 61.5L24.4 47.8L9 41H50H91Z" fill="url(#paint0_radial_149_1361)"/>
<path fill-rule="evenodd" clip-rule="evenodd" d="M62.4927 62.7151C50.4895 69.5198 35.1856 65.417 28.2837 53.5087C26.0379 49.5769 24.9805 45.2632 25.0003 41H75.0003C75.0051 49.6949 70.5532 58.1455 62.4927 62.7151Z" fill="#FFD348"/>
<path fill-rule="evenodd" clip-rule="evenodd" d="M29.0001 41C28.9872 44.5754 29.8881 48.1948 31.8038 51.4978C37.6026 61.4957 50.4998 64.995 60.4978 59.1962C67.1926 55.3131 70.9735 48.247 70.9998 41H29.0001Z" fill="url(#paint1_linear_149_1361)"/>
<g clip-path="url(#clip1_149_1361)">
<path fill-rule="evenodd" clip-rule="evenodd" d="M5 39.5C5 38.6716 5.67157 38 6.5 38H93.5C94.3284 38 95 38.6716 95 39.5C95 40.3284 94.3284 41 93.5 41H6.5C5.67157 41 5 40.3284 5 39.5Z" fill="#171F28"/>
</g>
</g>
<defs>
<radialGradient id="paint0_radial_149_1361" cx="0" cy="0" r="1" gradientUnits="userSpaceOnUse" gradientTransform="translate(50 41) scale(41)">
<stop offset="0.5143" stop-color="#D6B849"/>
<stop offset="0.6523" stop-color="#FFCE47"/>
<stop offset="1" stop-color="#FFDB73"/>
</radialGradient>
<linearGradient id="paint1_linear_149_1361" x1="36.5002" y1="24.912" x2="63.4995" y2="57.0886" gradientUnits="userSpaceOnUse">
<stop stop-color="#FFAF22"/>
<stop offset="0.9897" stop-color="#F09900"/>
</linearGradient>
<clipPath id="clip0_149_1361">
<rect width="100" height="100" fill="white"/>
</clipPath>
<clipPath id="clip1_149_1361">
<rect width="90" height="3" fill="white" transform="translate(5 38)"/>
</clipPath>
</defs>
</svg>

<svg xmlns="http://www.w3.org/2000/svg" fill="none" viewBox="0 0 100 100">
  <g clip-path="url(#a)">
    <path fill="url(#b)" fill-rule="evenodd" d="m91 41-15.4 6.9 9.9 13.5-16.8-1.7 1.8 16.7-13.7-9.8L50 82l-6.9-15.4-13.6 9.9 1.7-16.8-16.7 1.8 9.9-13.7L9 41h82Z" clip-rule="evenodd"/>
    <path fill="#FFD348" fill-rule="evenodd" d="M62.493 62.715c-12.004 6.805-27.307 2.702-34.21-9.206A24.921 24.921 0 0 1 25 41h50c.005 8.695-4.447 17.145-12.507 21.715Z" clip-rule="evenodd"/>
    <path fill="url(#c)" fill-rule="evenodd" d="M29 41a20.71 20.71 0 0 0 2.804 10.498c5.799 9.998 18.696 13.497 28.694 7.698C67.193 55.313 70.974 48.247 71 41H29Z" clip-rule="evenodd"/>
    <g clip-path="url(#d)">
      <path fill="#171F28" fill-rule="evenodd" d="M5 39.5A1.5 1.5 0 0 1 6.5 38h87a1.5 1.5 0 0 1 0 3h-87A1.5 1.5 0 0 1 5 39.5Z" clip-rule="evenodd"/>
    </g>
  </g>
  <defs>
    <clipPath id="a">
      <path fill="#fff" d="M0 0h100v100H0z"/>
    </clipPath>
    <clipPath id="d">
      <path fill="#fff" d="M5 38h90v3H5z"/>
    </clipPath>
    <radialGradient id="b" cx="0" cy="0" r="1" gradientTransform="matrix(41 0 0 41 50 41)" gradientUnits="userSpaceOnUse">
      <stop offset=".514" stop-color="#D6B849"/>
      <stop offset=".652" stop-color="#FFCE47"/>
      <stop offset="1" stop-color="#FFDB73"/>
    </radialGradient>
    <linearGradient id="c" x1="36.5" x2="63.499" y1="24.912" y2="57.089" gradientUnits="userSpaceOnUse">
      <stop stop-color="#FFAF22"/>
      <stop offset=".99" stop-color="#F09900"/>
    </linearGradient>
  </defs>
</svg>
